X: 2143
Q: "Strathspey."
M: C
L: 1/8
K: D
uB |\
vA<FF>uA vB<GG>uB | vA<FF>uA vd>uAB<d |\
uc |\
vd<f e>uf vd>vAuF>uA |
vd>uf g/f/e/d/ c<ee>uf |\
[1 vd<fe>uf vd>vAuF>uA | vG>uE G/F/E/D/ C<EE :|\
[2 (3fed (3edc (3dcB (3AGF | vG>uE G/F/E/D/ C<EE |]


